X:1
T:Darlin'
M:4/4
L:1/8
K:G
 E E2 E G2 E2| GG A2 E2- B,2|^D-B, E6|^D-B, E6| B B2 B d2 B2| dd e2B-A G2|\
A-G B6| A2 B6| B B2 B d2 B2| ed B2 B4| EE EE G2 G2|B-A G2 E4|E-^D E6|\
 ^D2 E6|
